T: Siuil A Ruin
M: 4/4
L: 1/8
K: Cmaj
|: c4 B4 | A3 G E4 | G3 EG Ac B | A G2 E D2 CD | EF ED CD EF | GA GE c2 cB | AB AG ED EG | A4- A2 G/A/B | c3 c B2 B2 | A>B AG E3 E | G3 E GA cB | A G2 E D2 CD | E>F ED CD EF | GA GE c3 B | A>B AG ED EF/G/ | A4- A2 z2 :|
